X: 1021
M: 2/4
L: 1/16
K: G
d4 D2c2 | B4 D2c2 | B2A2 C2B2 | A2G2 D2e2 |\
d4 D2c2 | B4 D2c2 | B2A2 B2A2 | G4 z2 :|
|: A2 |\
d4- d^cBA | BA^GA F4 | d4- d^cBA | BA^GA F4 |\
e4- ed ^cB | ^c4- cBA^G | B4- BAA=G | GFFE EAA^c |
d4- d^cBA | BA^GA F4 | d4- dcBA | cB^AB G4 |\
EBA2- AGFE | DBA2- AFED | ^CDEF GAB^c | d4 z2 :|
|: DG |\
E3E E2E2 | E2c2 B2A2 | G4- GFAG | F3D EFGA |
d4- dcBA | c4- cBAG | B4- BAGF | G4 z2 :|
|:[K:C] cd |\
(e4 c2)E=F | (A4 G2) de | (=f4 d2) dc | cBBA G2cd |\
(e4 c2) EG |(_B4 A2) ag | g=ffe eddg | c4 z2 :|

